assets/svgs/misc-grey/MiscGrey28.svg

<svg width="48" height="34" viewBox="0 0 48 34" fill="none" xmlns="http://www.w3.org/2000/svg">
<path fill-rule="evenodd" clip-rule="evenodd" d="M31.5199 30.4H12.1999C7.57995 30.4 3.81995 26.65 3.81995 22.02C3.81995 17.4 7.57995 13.64 12.1999 13.64C13.9999 13.64 14.6699 13.87 16.3899 14.77C16.3999 14.77 16.4099 14.77 16.4099 14.78C16.4599 14.8 16.5099 14.82 16.5699 14.84C16.6099 14.85 16.6599 14.87 16.6999 14.89C16.7099 14.89 16.7199 14.89 16.7299 14.89C16.7699 14.91 16.8099 14.91 16.8499 14.91C16.8999 14.92 16.9399 14.93 16.9899 14.93C17.0499 14.94 17.1199 14.93 17.1799 14.93C17.2099 14.93 17.2399 14.93 17.2699 14.92C17.3399 14.92 17.4099 14.9 17.4799 14.88C17.4999 14.88 17.5299 14.87 17.5499 14.86C17.6199 14.84 17.6799 14.81 17.7399 14.78C17.7599 14.77 17.7899 14.76 17.8199 14.74C17.8699 14.71 17.9199 14.68 17.9699 14.64C17.9999 14.62 18.0299 14.6 18.0599 14.58C18.1099 14.54 18.1399 14.5 18.1799 14.45C18.2099 14.42 18.2399 14.4 18.2599 14.36C18.2999 14.32 18.3299 14.27 18.3599 14.21C18.3799 14.19 18.3999 14.16 18.4199 14.13C18.4199 14.13 18.4199 14.12 18.4199 14.11C18.4499 14.06 18.4699 14.01 18.4899 13.96C18.4999 13.92 18.5199 13.87 18.5299 13.82C18.5399 13.82 18.5399 13.81 18.5399 13.8C20.0299 7.84004 25.3599 3.67004 31.5199 3.67004C38.8899 3.67004 44.8799 9.67004 44.8799 17.04C44.8799 24.41 38.8899 30.4 31.5199 30.4ZM31.5199 0.670044C24.5899 0.670044 18.5299 4.98004 16.1799 11.35C15.0299 10.88 13.9299 10.64 12.1999 10.64C5.92995 10.64 0.819946 15.75 0.819946 22.02C0.819946 28.3 5.92995 33.4 12.1999 33.4H31.5199C40.5399 33.4 47.8799 26.06 47.8799 17.04C47.8799 8.01005 40.5399 0.670044 31.5199 0.670044Z" fill="#1A1919"/>
</svg>

<svg xmlns="http://www.w3.org/2000/svg" fill="none" viewBox="0 0 48 34"><path fill="#1A1919" fill-rule="evenodd" d="M31.52 30.4H12.2c-4.62 0-8.38-3.75-8.38-8.38 0-4.62 3.76-8.38 8.38-8.38 1.8 0 2.47.23 4.19 1.13.01 0 .02 0 .02.01.05.02.1.04.16.06.04.01.09.03.13.05h.03c.04.02.08.02.12.02.05.01.09.02.14.02.06.01.13 0 .19 0 .03 0 .06 0 .09-.01.07 0 .14-.02.21-.04.02 0 .05-.01.07-.02.07-.02.13-.05.19-.08.02-.01.05-.02.08-.04.05-.03.1-.06.15-.1l.09-.06c.05-.04.08-.08.12-.13.03-.03.06-.05.08-.09a.56.56 0 00.1-.15c.02-.02.04-.05.06-.08v-.02c.03-.05.05-.1.07-.15.01-.04.03-.09.04-.14.01 0 .01-.01.01-.02A13.354 13.354 0 0131.52 3.67c7.37 0 13.36 6 13.36 13.37 0 7.37-5.99 13.36-13.36 13.36zm0-29.73c-6.93 0-12.99 4.31-15.34 10.68-1.15-.47-2.25-.71-3.98-.71C5.93 10.64.82 15.75.82 22.02.82 28.3 5.93 33.4 12.2 33.4h19.32c9.02 0 16.36-7.34 16.36-16.36C47.88 8.01 40.54.67 31.52.67z" clip-rule="evenodd"/></svg>
